projects/music-player/images/logo.svg

<svg width="92" height="75" viewBox="0 0 92 75" fill="none" xmlns="http://www.w3.org/2000/svg">
<path d="M38.3964 30.183C38.3964 28.9885 39.6041 27.9385 41.2063 27.9385C42.8083 27.9385 44.016 28.9885 44.0162 30.183C44.0162 30.183 44.0162 30.183 44.0162 30.183V44.817C44.0162 46.0115 42.8085 47.0615 41.2063 47.0615C39.6041 47.0615 38.3964 46.0115 38.3964 44.817V30.183Z" fill="white" stroke="#F26600" stroke-width="0.5"/>
<path d="M28.9107 22.4502C28.9107 21.2558 30.1184 20.2057 31.7206 20.2057C33.3228 20.2057 34.5305 21.2558 34.5305 22.4501V52.5501C34.5305 53.7453 33.3228 54.7953 31.7206 54.7953C30.1184 54.7953 28.9107 53.7453 28.9107 52.5508V22.4502Z" fill="white" stroke="#F26600" stroke-width="0.5"/>
<path d="M19.3231 15.2162C19.3231 14.0218 20.5308 12.9717 22.133 12.9717C23.7352 12.9717 24.9429 14.0218 24.9429 15.2162V59.7838C24.9429 60.9783 23.7352 62.0283 22.133 62.0283C20.5308 62.0283 19.3231 60.9783 19.3231 59.7838V15.2162Z" fill="white" stroke="#F26600" stroke-width="0.5"/>
<path d="M9.83759 22.4502C9.83759 21.2558 11.0453 20.2057 12.6475 20.2057C14.2496 20.2057 15.4574 21.2558 15.4574 22.4501V52.5501C15.4574 53.7453 14.2497 54.7953 12.6475 54.7953C11.0453 54.7953 9.83759 53.7453 9.83759 52.5508V22.4502Z" fill="white" stroke="#F26600" stroke-width="0.5"/>
<path d="M0.25 29.684C0.25 28.4896 1.45766 27.4395 3.0599 27.4395C4.66196 27.4395 5.8698 28.4896 5.8698 29.684V45.316C5.8698 46.5111 4.66218 47.5604 3.0599 47.5604C1.45766 47.5604 0.25 46.5104 0.25 45.316V29.684Z" fill="white" stroke="#F26600" stroke-width="0.5"/>
<path d="M67.0571 15.2162C67.0571 14.0218 68.2648 12.9717 69.867 12.9717C71.4691 12.9717 72.6769 14.0218 72.6769 15.2162V59.7838C72.6769 60.9783 71.4692 62.0283 69.867 62.0283C68.2648 62.0283 67.0571 60.9783 67.0571 59.7838V15.2162Z" fill="white" stroke="#F26600" stroke-width="0.5"/>
<path d="M57.4695 22.4502C57.4695 21.2558 58.6772 20.2057 60.2794 20.2057C61.8815 20.2057 63.0893 21.2558 63.0893 22.4501V52.5501C63.0893 53.7453 61.8816 54.7953 60.2794 54.7953C58.6772 54.7953 57.4695 53.7453 57.4695 52.5508V22.4502Z" fill="white" stroke="#F26600" stroke-width="0.5"/>
<path d="M47.984 26.3581C47.984 25.1637 49.1916 24.1136 50.7939 24.1136C52.3959 24.1136 53.6036 25.1636 53.6038 26.3581C53.6038 26.3581 53.6038 26.3581 53.6038 26.3581V48.6419C53.6038 49.837 52.3962 50.8864 50.7939 50.8864C49.1916 50.8864 47.984 49.8363 47.984 48.6419V26.3581Z" fill="white" stroke="#F26600" stroke-width="0.5"/>
<path d="M76.5426 22.4502C76.5426 21.2558 77.7503 20.2057 79.3525 20.2057C80.9548 20.2057 82.1624 21.2558 82.1624 22.4501V52.5501C82.1624 53.7453 80.9547 54.7953 79.3525 54.7953C77.7503 54.7953 76.5426 53.7453 76.5426 52.5508V22.4502Z" fill="white" stroke="#F26600" stroke-width="0.5"/>
<path d="M86.1302 29.684C86.1302 28.4896 87.3379 27.4395 88.9401 27.4395C90.5423 27.4395 91.75 28.4896 91.75 29.684V45.316C91.75 46.5111 90.5424 47.5604 88.9401 47.5604C87.3379 47.5604 86.1302 46.5104 86.1302 45.316V29.684Z" fill="white" stroke="#F26600" stroke-width="0.5"/>
</svg>

<svg width="92" height="75" fill="none" xmlns="http://www.w3.org/2000/svg"><path d="M38.396 30.183c0-1.195 1.208-2.244 2.81-2.244s2.81 1.05 2.81 2.244v14.634c0 1.194-1.207 2.245-2.81 2.245-1.602 0-2.81-1.05-2.81-2.245V30.183ZM28.91 22.45c0-1.194 1.208-2.244 2.81-2.244 1.603 0 2.81 1.05 2.81 2.244v30.1c0 1.195-1.207 2.245-2.81 2.245-1.602 0-2.81-1.05-2.81-2.244v-30.1ZM19.323 15.216c0-1.194 1.208-2.244 2.81-2.244s2.81 1.05 2.81 2.244v44.568c0 1.194-1.208 2.244-2.81 2.244s-2.81-1.05-2.81-2.244V15.216ZM9.838 22.45c0-1.194 1.207-2.244 2.81-2.244 1.602 0 2.81 1.05 2.81 2.244v30.1c0 1.195-1.208 2.245-2.81 2.245-1.603 0-2.81-1.05-2.81-2.244v-30.1ZM.25 29.684c0-1.194 1.208-2.245 2.81-2.245s2.81 1.05 2.81 2.245v15.632c0 1.195-1.208 2.244-2.81 2.244S.25 46.51.25 45.316V29.684ZM67.057 15.216c0-1.194 1.208-2.244 2.81-2.244s2.81 1.05 2.81 2.244v44.568c0 1.194-1.208 2.244-2.81 2.244s-2.81-1.05-2.81-2.244V15.216ZM57.47 22.45c0-1.194 1.207-2.244 2.81-2.244 1.602 0 2.81 1.05 2.81 2.244v30.1c0 1.195-1.208 2.245-2.81 2.245-1.603 0-2.81-1.05-2.81-2.244v-30.1ZM47.984 26.358c0-1.194 1.208-2.244 2.81-2.244s2.81 1.05 2.81 2.244v22.284c0 1.195-1.208 2.244-2.81 2.244s-2.81-1.05-2.81-2.244V26.358ZM76.543 22.45c0-1.194 1.207-2.244 2.81-2.244 1.602 0 2.81 1.05 2.81 2.244v30.1c0 1.195-1.208 2.245-2.81 2.245-1.603 0-2.81-1.05-2.81-2.244v-30.1ZM86.13 29.684c0-1.194 1.208-2.245 2.81-2.245s2.81 1.05 2.81 2.245v15.632c0 1.195-1.208 2.244-2.81 2.244s-2.81-1.05-2.81-2.244V29.684Z" fill="#fff" stroke="#F26600" stroke-width=".5"/></svg>
